src/pos-icons/account-check-outline.svg

<svg height="24" viewBox="0 0 24 24" width="24" xmlns="http://www.w3.org/2000/svg"><path d="m21.1 12.5 1.4 1.41-6.53 6.59-3.47-3.5 1.4-1.41 2.07 2.08zm-10.1-8.5a4 4 0 0 1 4 4 4 4 0 0 1 -4 4 4 4 0 0 1 -4-4 4 4 0 0 1 4-4m0 2a2 2 0 0 0 -2 2 2 2 0 0 0 2 2 2 2 0 0 0 2-2 2 2 0 0 0 -2-2m0 7c.68 0 1.5.09 2.41.26l-1.67 1.67-.74-.03c-2.97 0-6.1 1.46-6.1 2.1v1.1h6.2l1.9 1.9h-10v-3c0-2.66 5.33-4 8-4z"/></svg>

<?xml version="1.0" encoding="UTF-8"?><!DOCTYPE svg PUBLIC "-//W3C//DTD SVG 1.1//EN" "http://www.w3.org/Graphics/SVG/1.1/DTD/svg11.dtd"><svg xmlns="http://www.w3.org/2000/svg" xmlns:xlink="http://www.w3.org/1999/xlink" version="1.1" id="mdi-account-check-outline" width="24" height="24" viewBox="0 0 24 24"><path d="M21.1,12.5L22.5,13.91L15.97,20.5L12.5,17L13.9,15.59L15.97,17.67L21.1,12.5M11,4A4,4 0 0,1 15,8A4,4 0 0,1 11,12A4,4 0 0,1 7,8A4,4 0 0,1 11,4M11,6A2,2 0 0,0 9,8A2,2 0 0,0 11,10A2,2 0 0,0 13,8A2,2 0 0,0 11,6M11,13C11.68,13 12.5,13.09 13.41,13.26L11.74,14.93L11,14.9C8.03,14.9 4.9,16.36 4.9,17V18.1H11.1L13,20H3V17C3,14.34 8.33,13 11,13Z" /></svg>
